X:1
Q:1/4=108
L:1/8
M:1/4
K:C clef=G2
V:1
%%MIDI program 52
Gz/2G31/64|c31/16|Gz/2A31/64|B31/16|
A31/16|G2-|G31/16|zz/2d31/64|
dz/2c31/64|B31/16|Az/2B31/64|G31/16|
A31/16|B2-|B31/16|z2|
c31/32c31/32|A31/16|c31/32c31/32|d2-|
d31/32c31/32|A2-|A31/16|z2|
d3/4d3/4d3/4|B2-|B31/32d31/32|e31/16|
d31/16|B31/16|zz/2c31/64|B2-|
Bz/2G31/64|Bz/2A31/64|Bz/2c31/64|d2-|
d31/16|z2|Bz/2G31/64|A31/16|
Bz/2c31/64|e31/16|d31/16|d2-|
d31/16|z2|z2|z2|
z2|z2|z2|G62/16|
z2|G31/16|c31/32B31/32|A31/16|
F31/16|G2-|G31/16|z2|
E31/32F31/32|G31/16|E31/16|A31/16|
E31/32F31/32|G2-|G31/16|z2|
^F31/16|G31/16|A31/32A31/32|d31/16|
c31/32B31/32|c2-|c2-|c31/16
L:1/8
M:1/4
K:C clef=G2
V:2
%%MIDI program 0
Gz/2G15/32|[CEGc]15/8|[C-G,G][C-]/2[A,-A-C]3/8|[B,DGB]15/8|
[A,D^FA]15/8|[G-G,B,]31/32[G-A,C]31/32|[G-B,D]31/32[C-E-G]3/4[CE]31/128|[^F-D]3/2[D-d-^F]3/8|
[D^Fd]z/2[D^Fc]15/32|[DGB]15/8|[D-A,A][D-]/2[B,-B-D]3/8|[B,EG]15/8|
[A,CEA]15/8|[B,-^D-^F-B-]2|[B,^D^FB]7/4z7/32|[C-E-]2|
[C-E-c]15/16[c-CE]3/4[c]3/16|[CFA]15/8|[C-F-c]15/16[c-CF]3/4[c]3/16|[A-D-d-]2|
[ADd]7/8[A-]/8[C-c-A]3/4[Cc]3/16|[FAC]15/8|[F-A-D][F-A-]/2[D-FA]/4[D]31/128|[D^FA]15/8|
[D-^F-d]3/4[D-^F-d]3/4[d-D^F]/2[d]/8|[B,-D-G-B-]2|[B,DGB]7/8z/8[DGBd]15/16|[EGAe]15/8|
[DFAcd]15/8|[B,E^GB]15/8|[A,-C-]3/2[c-A,C]3/8|[D-G-B-]2|
[DGB]z/2[B,G]15/32|[C-G-B][C-G-]/2[A-CG]3/8|[E-G-B][E-G-]/2[c-EG]3/8|[D-^F-d-]2|
[D^Fd]7/4z7/32|z2|[B,DB][B,-D-]/2[G-B,D]3/8|[A,EGA]15/8|
[G-B,B][G-]/2[C-c-G]3/8|[E^Fe]15/8|[D^FAd]15/8|[D-G-B-d-]2|
[DGBd]7/4z7/32|z2|[G,G]3/4[G,G]3/4[G,G]3/4|[G,G]15/8|
[G,G]15/8|[^A,EG^A]15/8|[A,FA]z/2[G,EG]15/32|[G,-E-G-C]2|
[G,EG]7/4z7/32|[G,CEG]15/8|[E-G-Cc]15/16[B,-B-EG]7/8|[A,CFA]15/8|
[F,A,DF]15/8|[B,DG]15/8|[G,G]3/4[G,G]3/4[G,G]3/4|[G,G]15/8|
[c-Ee]15/16[F-f-c]7/8|[GBg]15/8|[Ece]15/8|[Aca]15/8|
[B-Ee]15/16[F-f-B]7/8|[c-g-G]2|(3:2[c-g-G][c-g-G][G-cg]15/32[G]3/16|c3/4G3/4c3/4|
[^f-^Fd][^f-]/2[^F-d-^f]3/8|[GBdg]15/8|[Acea]15/8|[DFAd]15/8|
[C^FAc]15/16[B,FGB]15/16|[C-E-c-]2|[C-E-c-]2|[C-E-c-]3/2[CEc]3/16(5:3z/2
L:1/8
M:1/4
K:C clef=F4
V:3
%%MIDI program 0
z2|[C,,C,]15/8|[E,,E,]15/8|[G,,G,]15/8|
[D,,D,]15/8|[G,,,G,,]15/8|G,,15/16G,,15/16|[D,,-D,-]2|
[D,,D,]7/4z7/32|[G,,G,]15/8|[^F,,^F,]15/8|[E,,E,]15/8|
[C,,C,]15/8|[B,,,-B,,-]2|[B,,,B,,]7/4z7/32|[A,,,-A,,-]2|
[A,,,A,,]7/4z7/32|[D,,-D,-]2|[D,,D,]7/4z7/32|[E,,-E,-]2|
[E,,E,]7/4z7/32|[F,,F,]15/16[E,,E,]15/16|[D,,D,]15/16[C,,C,]15/16|[D,,-D,-]2|
[D,,D,]7/4z7/32|[G,,G,]15/8|[G,,G,]15/8|[C,,C,]15/8|
[D,,D,]15/8|[E,,E,]15/8|[^F,,^F,]15/8|[G,,G,]15/8|
[F,,F,]15/8|[E,,E,]15/8|[C,,C,]15/8|[D,,D,A,]31/16|
[D,,-D,-B,]31/32[C-D,,D,]3/4[C]31/128|D31/16|[G,,G,]15/8|[C,,-C,-]2|
[C,,C,]7/4z7/32|[D,,D,]15/8|[D,,D,]15/8|[G,,-G,-]2|
[G,,G,]7/4z7/32|[C,,-E,,-G,,-C,-]2|[C,,-E,,-G,,-C,-]2|[C,,-E,,-G,,-C,-]2|
[C,,E,,G,,C,]3/2z7/16|[C,,-C,-]2|[C,,-C,-]2|[C,,-C,-]3/2[C,,C,]3/16z3/8|
[C-C,]15/16[B,,-B,-C]3/4[B,,B,]3/16|[A,,A,]15/16[E,,E,]15/16|[A,,A,]15/16[G,,G,]15/16|[F,,F,]15/16[E,,E,]15/16|
[D,,D,]15/16[C,,C,]15/16|[G,,,G,,]15/16[A,,,A,,]15/16|[B,,,B,,]15/16[C,,C,]15/16|[D,,D,]15/16[B,,,B,,]15/16|
[C,,C,]15/16[D,,D,]15/16|[E,,E,]15/8|[A,,A,]15/8|[F,,F,]15/8|
[G,,G,]15/8|[F,,F,]15/16[E,,E,]15/16|[D,,D,]15/16[E,,E,]15/16|[C,,C,]15/16[E,,E,]15/16|
[D,,D,]15/16[C,,C,]15/16|[B,,,B,,]15/8|[C,,C,]15/8|[F,,,F,,]15/8|
[D,,D,]15/16[G,,,G,,]15/16|[C,,C,]15/8|[G,,G,]31/32[E,,E,]31/32|[C,,C,]31/16


